styles/icons/layers.svg

<?xml version="1.0" encoding="UTF-8"?>
<svg width="24px" height="24px" viewBox="0 0 24 24" version="1.1" xmlns="http://www.w3.org/2000/svg" xmlns:xlink="http://www.w3.org/1999/xlink">
    <!-- Generator: Sketch 48.1 (47250) - http://www.bohemiancoding.com/sketch -->
    <title>Icon/tool/layers</title>
    <desc>Created with Sketch.</desc>
    <defs>
        <path d="M12.8318917,20.795609 C12.5758942,20.896609 12.200898,20.978609 11.9979,20.977609 C11.7949021,20.977609 11.4199058,20.893609 11.1649084,20.791609 L2.46499535,17.311609 C2.20899791,17.209609 2,16.900609 2,16.626609 L2,15.469609 C2,15.194609 2.20899791,15.053609 2.46499535,15.155609 L11.5389046,18.786609 C11.7939021,18.888609 12.2118979,18.889609 12.4678953,18.788609 L21.5358046,15.200609 C21.7908021,15.099609 21.9998,15.241609 21.9998,15.516609 L21.9998,16.688609 C21.9998,16.963609 21.7908021,17.271609 21.5348047,17.371609 L12.8318917,20.795609 Z M12.8318917,16.795609 C12.5758942,16.896609 12.200898,16.978609 11.9979,16.977609 C11.7949021,16.977609 11.4199058,16.892609 11.1649084,16.790609 L2.46399536,13.296609 C2.20899791,13.194609 2,12.885609 2,12.610609 L2,11.485609 C2,11.210609 2.20899791,11.068609 2.46499535,11.170609 L11.5389046,14.787609 C11.7939021,14.888609 12.2128979,14.889609 12.4688953,14.789609 L21.5348047,11.215609 C21.7908021,11.114609 21.9998,11.257609 21.9998,11.532609 L21.9998,12.688609 C21.9998,12.963609 21.7908021,13.271609 21.5348047,13.371609 L12.8318917,16.795609 Z M5.28216718,7.90400902 C5.02716973,8.00600902 5.02716973,8.17300902 5.28216718,8.27500902 L11.6581034,10.826009 C11.9131009,10.928009 12.3310967,10.926009 12.5850941,10.823009 L18.9700303,8.22600902 C19.2240278,8.12300902 19.2230278,7.95500902 18.9680303,7.85500902 L12.5930941,5.34800902 C12.3370966,5.24800902 11.9181008,5.24900902 11.6631034,5.35100902 L5.28216718,7.90400902 Z M12.1280987,13.017009 C11.9231008,13.018009 11.5451045,12.935009 11.2901071,12.832009 L2.46419536,9.29700902 C2.20919791,9.19400902 2.0002,8.88500902 2.0002,8.61100902 L2.0002,7.56400902 C2.0002,7.28900902 2.20919791,6.98000902 2.46519535,6.87800902 L11.2891071,3.34700902 C11.5441046,3.24500902 11.9191008,3.16100902 12.1220988,3.16000902 C12.3240968,3.15900902 12.700093,3.24100902 12.9560904,3.34200902 L21.5350046,6.70900902 C21.7910021,6.81000902 22,7.11700902 22,7.39200902 L22,8.64200902 C22,8.91700902 21.7920021,9.22700902 21.5370046,9.33100902 L12.9650903,12.827009 C12.7110929,12.931009 12.3340967,13.016009 12.1280987,13.017009 L12.1280987,13.017009 Z" id="path-1"></path>
    </defs>
    <g id="Core/Icons" stroke="none" stroke-width="1" fill="none" fill-rule="evenodd" transform="translate(-1220.000000, -1221.000000)">
        <g id="Tools" transform="translate(940.000000, 1181.000000)">
            <g id="Icon/tool/layers-a01" transform="translate(280.000000, 40.000000)">
                <mask id="mask-2" fill="white">
                    <use xlink:href="#path-1"></use>
                </mask>
                <use id="Icon" fill="#333333" fill-rule="evenodd" xlink:href="#path-1"></use>
            </g>
        </g>
    </g>
</svg>

<svg fill="#333333" height="24" width="24" viewBox="0 0 24 24" xmlns="http://www.w3.org/2000/svg">
    <path d="M12.8,20.8C12.6,20.9,12.2,21,12,21c-0.2,0-0.6-0.1-0.8-0.2l-8.7-3.5C2.2,17.2,2,16.9,2,16.6v-1.2c0-0.3,0.2-0.4,0.5-0.3l9.1,3.6c0.3,0.1,0.7,0.1,0.9,0l9.1-3.6c0.3-0.1,0.5,0,0.5,0.3v1.2c0,0.3-0.2,0.6-0.5,0.7L12.8,20.8z M12.8,16.8C12.6,16.9,12.2,17,12,17c-0.2,0-0.6-0.1-0.8-0.2l-8.7-3.5C2.2,13.2,2,12.9,2,12.6v-1.1c0-0.3,0.2-0.4,0.5-0.3l9.1,3.6c0.3,0.1,0.7,0.1,0.9,0l9.1-3.6c0.3-0.1,0.5,0,0.5,0.3v1.2c0,0.3-0.2,0.6-0.5,0.7L12.8,16.8z M5.3,7.9C5,8,5,8.2,5.3,8.3l6.4,2.6c0.3,0.1,0.7,0.1,0.9,0L19,8.2c0.3-0.1,0.3-0.3,0-0.4l-6.4-2.5c-0.3-0.1-0.7-0.1-0.9,0L5.3,7.9z M12.1,13c-0.2,0-0.6-0.1-0.8-0.2L2.5,9.3C2.2,9.2,2,8.9,2,8.6v-1C2,7.3,2.2,7,2.5,6.9l8.8-3.5c0.3-0.1,0.6-0.2,0.8-0.2c0.2,0,0.6,0.1,0.8,0.2l8.6,3.4C21.8,6.8,22,7.1,22,7.4v1.2c0,0.3-0.2,0.6-0.5,0.7L13,12.8C12.7,12.9,12.3,13,12.1,13L12.1,13z"/>
</svg>
